X:1
T:From Church to Church
T:From Church to Church
T:Harmonized by Wilfrid Shebbeare, circa 1910
T:Public Domain Courtesy of the Cyber Hymnal™
C:Harmonized by Wilfrid Shebbeare, circa 1910
Z:Public Domain
Z:Courtesy of the Cyber Hymnal™
%%score ( 1 2 ) ( 3 4 )
L:1/8
M:6/4
K:F
V:1 treble 
V:2 treble 
V:3 bass 
V:4 bass 
V:1
 [DG]2 | (G2 A2 [FB]2 A2 G2) F2 | G6 [Dd]4 [Fd]2 | c2 d2 [_E_e]2 (d2 c2) [Fd]2 | B6- [DB]4 [DB]2 | %5
 [Fd]4 [Fc]2 [Fd]4 [DG]2 x2 | (G2 A2) [Ec]2 (B2 A2) F2 | (A2 B2) [Fc]2 ([FB]2 [_EA]2) F2- | %8
 G6 !fermata![DG]4 |] %9
V:2
 x2 | E4 E4 F2 x2 | E4 C2 x6 | G4 F4 x4 | G2 F2 _E2 x6 | x14 | E4 F4 F2 x2 | F4 x4 F2- x2 | %8
 F4 _E2 x4 |] %9
V:3
 [G,B,]2 | ([C,C]4 [B,,D]2 C2 B,2) [D,A,]2 | C4 ([E,G,]2 F,4) [B,,B,]2 | %3
 [_E,G,]4 [C,G,]2 [D,B,]4 [B,,B,]2 | (B,2 A,2 G,2 [B,,F,]4) [B,,B,]2 | %5
 B,4 [F,A,]2 A,4 C,2 [B,,G,]2 | [C,C]4 [C,A,]2 [D,F,]4 [D,D]2 | %7
 C4 [A,,C]2 ([B,,D]2 [C,C]2) [D,B,]2 | B,4 ([C,C]2 [G,,B,]4) |] %9
V:4
 x2 | x6 C,4 x2 | (C,2 D,2 D,2 C,2) x4 | x12 | _E,6 x6 | B,4 D,2 x8 | x12 | (F,,2 G,,2) x8 | %8
 _E,2 D,2 x6 |] %9

